X:1
T:The Only Night of the Week
C:Robin Beech
Z:robin.beech@mcgill.ca
R:reel
M:4/4
L:1/8
K:Dm
DEFG Ad2A | GABG ABAF | DEFG Ad2f- | fa2g- gecA |
DEFG Ad2A | GABG ABAF | DEFG Ad2f | efga d4 :|
d2fa- adfa | gfed eA2c | d2ef ga2g | e4- efeA |
d2fa- adfa | gfed cdcB | AGAB Ad2f | efga d4 :|
